!!!id: BC114
!!!page: 141b
!!!COM: Anonymous
!!!LYR: Anonymous
!!!ARR: Do-Mi-Sol
!!!PTL@@FR: Les 100 plus belles chansons
!!!OTL@@FR:Au revoir
!!!PUB:La Bonne Chanson, inc.
!!!YEM: On ne peut reproduire, enregistrer ou diffuser en tout ou en partie le présent ouvrage, sous quelque procédé que ce soit, électronique, mécanique, photographique, sonore, magnétique ou autre, sans avoir obtenu au préalable l'autorisation écrite de l'éditrice.
!!!PDT: 2011
!!!SMA:2012 Bibliothèque nationale du Québec; Biblothèque nationale du Canada
!!!AGN-Laforte: Chanson courte, 1:6(14,8/6)
!!!AGN-rime: aabcbc
!!!AGN-type: friendship, goodbye
**kern	**text
*clefG2	*
*M4/4	*
*met(c)	*
*k[f#]	*
*	*pline:1
4d	A-
=1	=1
4.g	-vant
8g	de
4g	nous
4b	quit-
=2	=2
4.a	-ter,
8g	a-
4a	-mis,
4b	chan-
!!LO:PB:g=original
=3	=3
4.g	-tons
8g	a-
4b	-vec
4dd	a-
=4	=4
2.ee	-mour;
*	*rp:u
*	*rf:uʁ
*	*rs:a
*	*pline:2
4ee	Gar-
=5	=5
4.dd	-dons
8b	dans
4b	no-
4g	-tre
!!LO:PB:g=original
=6	=6
4.a	coeur
8g	l'es-
4a	-poir
4b	de
=7	=7
4.g	nous
8e	re-
4e	-voir
4d	un
!!LO:PB:g=original
=8	=8
2.g	jour.
*	*rp:u
*	*rf:uʁ
*	*rs:a
*	*pline:3
4ee	Ce
=9	=9
4.dd	n'est
8b	qu'un
4b	au-
4g	-re-
=10	=10
4.a	-voir;
8g	a-
4a	mis,
*	*rp:i
*	*rf:ni
*	*rs:b
*	*pline:3a6
4ee	Ce
!!LO:PB:g=original
=11	=11
4.dd	n'est
8b	qu'un
4b	au-
4dd	-re-
=12	=12
2.ee	voir;
*	*rp:a
*	*rf:vwaʁ
*	*rs:c
*	*pline:4
4ee^^	Oui,
=13	=13
4.dd	nous
8b	nous
4b	re-
4g	-ver-
!!LO:PB:g=original
=14	=14
4.a	-rons,
8g	a-
4a,	-mis,
*	*rp:i
*	*rf:ni
*	*rs:b
*	*pline:3a6
4b	Ce
=15	=15
4.g	n'est
8e	qu'un
4e	au-
4d	-re-
=16	=16
2.g;	-voir!
*	*rp:a
*	*rf:vwaʁ
*	*rs:c
==	==
*-	*-
!!!EED-1: Rajat Chowdhury
!!!EEV-1: 2026/03/21
!!!EED-2: Ève Poudrier
!!!EEV-2: 2026/04/10
